X:18766
T:Wild Morris
R:Morris
O:England
M:6/8
K:D
A|\
def B2B|cde A2A|dcB AGF|Edc d2A|\
def Bcd|cde A2d|dcB EA^G|A3 A2:|
a|\
agf fed|gfe e2=f|^fed dcB|_B=Bc =F2a|\
agf fed|gfe d2=f|^fed d2c|B3 B2A|
d2d dcB|e2e edc|f2f fed|g2g g2a|\
bag fed|cde A2d|dcB Adc|d3 d2||


